X:1
T:The Twa Sisters
M:6/8
L:1/8
K:C
 E| GGG GAB| GGG D2 D| G3- G3| G3- G2 D| G2 G GAB| G2 G D2 D| B2 B D2 D|\

M:3/8
 G2 c|
M:6/8
 e2 e B2 B| e3- e3| d3- d2 B| G2 G GAB| G2 G D2 D| B2 B D2 D| G2||\


